X:1
T:Ground Bass Exercise Templates
T:Ground Bass Exercise Templates
T:Bach Crucifixus (from the B Minor mass, BWV 232) 
T:Ground Bass Exercise Templates
T:CC0 1.0 Universal (Public Domain). Mark Gotham and FourScoreAndMore.org waive all rights to this document.
Z:CC0 1.0 Universal (Public Domain). Mark Gotham and FourScoreAndMore.org waive all rights to this document.
L:1/8
M:3/2
K:G
V:1 bass nm="Piano"
V:1
 E,,2 E,,2 E,2 E,2 E,2 E,2 | ^D,2 D,2 =D,2 D,2 D,2 D,2 | ^C,2 C,2 =C,2 C,2 C,2 C,2 | %3
 B,,2 B,,2 B,,2 B,,2 B,,2 B,,2 | E,,2 E,,2 E,2 E,2 E,2 E,2 | ^D,2 D,2 =D,2 D,2 D,2 D,2 | %6
 ^C,2 C,2 =C,2 C,2 C,2 C,2 | B,,2 B,,2 B,,2 B,,2 B,,2 B,,2 | E,,2 E,,2 E,2 E,2 E,2 E,2 | %9
 ^D,2 D,2 =D,2 D,2 D,2 D,2 | ^C,2 C,2 =C,2 C,2 C,2 C,2 | B,,2 B,,2 B,,2 B,,2 B,,2 B,,2 | %12
 E,,2 E,,2 E,2 E,2 E,2 E,2 | ^D,2 D,2 =D,2 D,2 D,2 D,2 | ^C,2 C,2 =C,2 C,2 C,2 C,2 | %15
 B,,2 B,,2 B,,2 B,,2 B,,2 B,,2 | E,,2 E,,2 E,2 E,2 E,2 E,2 | ^D,2 D,2 =D,2 D,2 D,2 D,2 | %18
 ^C,2 C,2 =C,2 C,2 C,2 C,2 | B,,2 B,,2 B,,2 B,,2 B,,2 B,,2 |] %20

